SVG_Azure_Grouped/Application/Web App File.svg

<?xml version="1.0" encoding="UTF-8" standalone="no"?>
<!-- Generated by Microsoft Visio, SVG Export Web App File.svg Page-1 -->

<svg
   xmlns:dc="http://purl.org/dc/elements/1.1/"
   xmlns:cc="http://creativecommons.org/ns#"
   xmlns:rdf="http://www.w3.org/1999/02/22-rdf-syntax-ns#"
   xmlns:svg="http://www.w3.org/2000/svg"
   xmlns="http://www.w3.org/2000/svg"
   xmlns:sodipodi="http://sodipodi.sourceforge.net/DTD/sodipodi-0.dtd"
   xmlns:inkscape="http://www.inkscape.org/namespaces/inkscape"
   width="0.78735727in"
   height="0.62993443in"
   viewBox="0 0 56.690012 45.355358"
   xml:space="preserve"
   class="st6"
   version="1.1"
   id="svg75"
   sodipodi:docname="Web App File.svg"
   style="font-size:12px;overflow:visible;color-interpolation-filters:sRGB;fill:none;fill-rule:evenodd;stroke-linecap:square;stroke-miterlimit:3"
   inkscape:version="0.92.5 (2060ec1f9f, 2020-04-08)"><metadata
   id="metadata79"><rdf:RDF><cc:Work
       rdf:about=""><dc:format>image/svg+xml</dc:format><dc:type
         rdf:resource="http://purl.org/dc/dcmitype/StillImage" /></cc:Work></rdf:RDF></metadata><sodipodi:namedview
   pagecolor="#ffffff"
   bordercolor="#666666"
   borderopacity="1"
   objecttolerance="10"
   gridtolerance="10"
   guidetolerance="10"
   inkscape:pageopacity="0"
   inkscape:pageshadow="2"
   inkscape:window-width="640"
   inkscape:window-height="480"
   id="namedview77"
   showgrid="false"
   inkscape:zoom="1.5491419"
   inkscape:cx="37.795417"
   inkscape:cy="30.240116"
   inkscape:window-x="0"
   inkscape:window-y="0"
   inkscape:window-maximized="0"
   inkscape:current-layer="svg75" />
	<style
   type="text/css"
   id="style2">
	<![CDATA[
		.st1 {fill:url(#grad0-6);stroke:none;stroke-linecap:butt;stroke-width:34.4513}
		.st2 {fill:#0078d4;stroke:none;stroke-linecap:butt;stroke-width:34.4513}
		.st3 {fill:url(#grad0-12);stroke:none;stroke-linecap:butt;stroke-width:34.4513}
		.st4 {fill:#f2f2f2;stroke:none;stroke-linecap:butt;stroke-width:34.4513}
		.st5 {fill:url(#grad0-18);stroke:none;stroke-linecap:butt;stroke-width:34.4513}
		.st6 {fill:none;fill-rule:evenodd;font-size:12px;overflow:visible;stroke-linecap:square;stroke-miterlimit:3}
	]]>
	</style>

	<defs
   id="Patterns_And_Gradients">
		<linearGradient
   id="grad0-6"
   x1="-5.5596963e-06"
   y1="105.51795"
   x2="43.474643"
   y2="105.51795"
   gradientTransform="scale(1.3039787,0.76688371)"
   gradientUnits="userSpaceOnUse">
			<stop
   offset="0"
   stop-color="#0078d4"
   stop-opacity="1"
   id="stop4" />
			<stop
   offset="0.5"
   stop-color="#4093e6"
   stop-opacity="1"
   id="stop6" />
			<stop
   offset="0.775"
   stop-color="#5ea0ef"
   stop-opacity="1"
   id="stop8" />
		</linearGradient>
		<linearGradient
   id="grad0-12"
   x1="-0.0079792049"
   y1="45.219842"
   x2="5.979941"
   y2="45.219842"
   gradientTransform="scale(0.44816495,2.2313213)"
   gradientUnits="userSpaceOnUse">
			<stop
   offset="0"
   stop-color="#5ea0ef"
   stop-opacity="1"
   id="stop11" />
			<stop
   offset="0.37"
   stop-color="#9fc6f5"
   stop-opacity="1"
   id="stop13" />
			<stop
   offset="0.8"
   stop-color="#e4effc"
   stop-opacity="1"
   id="stop15" />
			<stop
   offset="1"
   stop-color="#ffffff"
   stop-opacity="1"
   id="stop17" />
		</linearGradient>
		<linearGradient
   id="grad0-18"
   x1="0"
   y1="45.176646"
   x2="5.9924002"
   y2="45.176646"
   gradientTransform="scale(0.4478299,2.2329907)"
   gradientUnits="userSpaceOnUse">
			<stop
   offset="0"
   stop-color="#ffffff"
   stop-opacity="1"
   id="stop20" />
			<stop
   offset="0.2"
   stop-color="#e4effc"
   stop-opacity="1"
   id="stop22" />
			<stop
   offset="0.63"
   stop-color="#9fc6f5"
   stop-opacity="1"
   id="stop24" />
			<stop
   offset="1"
   stop-color="#5ea0ef"
   stop-opacity="1"
   id="stop26" />
		</linearGradient>
	</defs>
	<g
   id="g73"
   transform="translate(-34.451293,-34.453385)">
		<title
   id="title30">Page-1</title>
		<g
   id="group13678-1"
   transform="translate(34.4513,-34.4513)">
			<title
   id="title32">Web App File.13678</title>
			<g
   id="group13679-2">
				<title
   id="title34">MsPortalFx.base.images-27</title>
				<g
   id="shape13680-3">
					<title
   id="title36">path4</title>
					<path
   d="m 0,80.92 h 56.69 v 31.45 a 1.89421,1.88479 0 0 1 -1.89,1.89 H 1.89 A 1.89421,1.88479 0 0 1 0,112.37 Z"
   class="st1"
   id="path38"
   inkscape:connector-curvature="0"
   style="fill:url(#grad0-6);stroke:none;stroke-width:34.45130157;stroke-linecap:butt" />
				</g>
				<g
   id="shape13681-7"
   transform="translate(0,-33.3355)">
					<title
   id="title41">path6</title>
					<path
   d="m 1.9,102.24 h 52.89 a 1.89421,1.88479 0 0 1 1.89,1.88 v 10.14 H 0 v -10.14 a 1.89421,1.88479 0 0 1 1.9,-1.88 z"
   class="st2"
   id="path43"
   inkscape:connector-curvature="0"
   style="fill:#0078d4;stroke:none;stroke-width:34.45130157;stroke-linecap:butt" />
				</g>
				<g
   id="shape13682-9"
   transform="rotate(-44.919,-0.00678218,86.103055)">
					<title
   id="title46">path8</title>
					<path
   d="m 1.05,100.9 h 1.63 v 12.84 a 0.523576,0.520971 0 0 1 -0.523576,0.52097 L 0.52,114.26 a 0.523576,0.520971 0 0 1 -0.523576,-0.52097 L 0,101.94 a 1.04715,1.04194 0 0 1 1.05,-1.04 z"
   class="st3"
   id="path48"
   inkscape:connector-curvature="0"
   style="fill:url(#grad0-12);stroke:none;stroke-width:34.45130157;stroke-linecap:butt" />
				</g>
				<g
   id="shape13683-13"
   transform="translate(10.8419,-15.795)">
					<title
   id="title51">path10</title>
					<path
   d="m 1.46,114.26 -1.15,-1.15 a 1.04715,1.04194 0 0 1 0,-1.48 l 8.54,-8.47 a 0.523576,0.520971 0 0 1 0.740343,0 L 10.74,104.31 a 0.523576,0.520971 0 0 1 0,0.73666 z"
   class="st4"
   id="path53"
   inkscape:connector-curvature="0"
   style="fill:#f2f2f2;stroke:none;stroke-width:34.45130157;stroke-linecap:butt" />
				</g>
				<g
   id="shape13684-15"
   transform="rotate(-135.081,19.144801,95.990975)">
					<title
   id="title56">path12</title>
					<path
   d="m 0.52,100.88 h 1.64 a 0.523576,0.520971 0 0 1 0.523576,0.52097 L 2.68,114.26 H 1.05 A 1.04715,1.04194 0 0 1 0,113.22 V 101.4 a 0.523576,0.520971 0 0 1 0.523576,-0.52097 z"
   class="st5"
   id="path58"
   inkscape:connector-curvature="0"
   style="fill:url(#grad0-18);stroke:none;stroke-width:34.45130157;stroke-linecap:butt" />
				</g>
				<g
   id="shape13685-19"
   transform="translate(34.2759,-15.7917)">
					<title
   id="title61">path14</title>
					<path
   d="m 0.15,104.31 1.16,-1.15 a 0.523576,0.520971 0 0 1 0.740343,0 L 10.58,111.63 a 1.04715,1.04194 0 0 1 0.01,1.48 l -1.15,1.15 -9.28,-9.2 a 0.523576,0.520971 0 0 1 -0.00667,-0.7433 z"
   class="st4"
   id="path63"
   inkscape:connector-curvature="0"
   style="fill:#f2f2f2;stroke:none;stroke-width:34.45130157;stroke-linecap:butt" />
				</g>
				<g
   id="shape13686-21"
   transform="rotate(17.752,31.781761,184.85658)">
					<title
   id="title66">rect16</title>
					<path
   d="m 0,113.89 a 0.373515,0.371657 -180 0 0 0.373506,0.37165 L 2.31,114.26 a 0.373515,0.371657 -180 0 0 0.373506,-0.37165 L 2.69,89.3 A 0.373515,0.371657 -180 0 0 2.316494,88.928352 L 0.37,88.93 a 0.373515,0.371657 -180 0 0 -0.373506,0.371648 z"
   class="st4"
   id="path68"
   inkscape:connector-curvature="0"
   style="fill:#f2f2f2;stroke:none;stroke-width:34.45130157;stroke-linecap:butt" />
				</g>
			</g>
		</g>
	</g>
</svg>

<?xml version="1.0" encoding="UTF-8" standalone="no"?>
<!DOCTYPE svg PUBLIC "-//W3C//DTD SVG 1.1//EN" "http://www.w3.org/Graphics/SVG/1.1/DTD/svg11.dtd">
<!-- Generated by Microsoft Visio, SVG Export Web App File.svg Page-1 -->
<svg xmlns="http://www.w3.org/2000/svg" xmlns:xlink="http://www.w3.org/1999/xlink" xmlns:ev="http://www.w3.org/2001/xml-events"
		width="1.74438in" height="1.5869in" viewBox="0 0 125.596 114.257" xml:space="preserve" color-interpolation-filters="sRGB"
		class="st6">
	<style type="text/css">
	<![CDATA[
		.st1 {fill:url(#grad0-6);stroke:none;stroke-linecap:butt;stroke-width:34.4513}
		.st2 {fill:#0078d4;stroke:none;stroke-linecap:butt;stroke-width:34.4513}
		.st3 {fill:url(#grad0-12);stroke:none;stroke-linecap:butt;stroke-width:34.4513}
		.st4 {fill:#f2f2f2;stroke:none;stroke-linecap:butt;stroke-width:34.4513}
		.st5 {fill:url(#grad0-18);stroke:none;stroke-linecap:butt;stroke-width:34.4513}
		.st6 {fill:none;fill-rule:evenodd;font-size:12px;overflow:visible;stroke-linecap:square;stroke-miterlimit:3}
	]]>
	</style>

	<defs id="Patterns_And_Gradients">
		<linearGradient id="grad0-6" x1="0" y1="0" x2="1" y2="0" gradientTransform="rotate(-90 0.5 0.5)">
			<stop offset="0" stop-color="#0078d4" stop-opacity="1"/>
			<stop offset="0.5" stop-color="#4093e6" stop-opacity="1"/>
			<stop offset="0.775" stop-color="#5ea0ef" stop-opacity="1"/>
		</linearGradient>
		<linearGradient id="grad0-12" x1="0" y1="0" x2="1" y2="0" gradientTransform="rotate(44.919 0.5 0.5)">
			<stop offset="0" stop-color="#5ea0ef" stop-opacity="1"/>
			<stop offset="0.37" stop-color="#9fc6f5" stop-opacity="1"/>
			<stop offset="0.8" stop-color="#e4effc" stop-opacity="1"/>
			<stop offset="1" stop-color="#ffffff" stop-opacity="1"/>
		</linearGradient>
		<linearGradient id="grad0-18" x1="0" y1="0" x2="1" y2="0" gradientTransform="rotate(135.081 0.5 0.5)">
			<stop offset="0" stop-color="#ffffff" stop-opacity="1"/>
			<stop offset="0.2" stop-color="#e4effc" stop-opacity="1"/>
			<stop offset="0.63" stop-color="#9fc6f5" stop-opacity="1"/>
			<stop offset="1" stop-color="#5ea0ef" stop-opacity="1"/>
		</linearGradient>
	</defs>
	<g>
		<title>Page-1</title>
		<g id="group13331-1" transform="translate(34.4513,-34.4513)">
			<title>Web App File.13331</title>
			<g id="group13332-2">
				<title>MsPortalFx.base.images-27</title>
				<g id="shape13333-3">
					<title>path4</title>
					<path d="M0 80.92 L56.69 80.92 L56.69 112.37 A1.89421 1.88479 0 0 1 54.8 114.26 L1.89 114.26 A1.89421 1.88479
								 0 0 1 0 112.37 L0 80.92 Z" class="st1"/>
				</g>
				<g id="shape13334-7" transform="translate(0,-33.3355)">
					<title>path6</title>
					<path d="M1.9 102.24 L54.79 102.24 A1.89421 1.88479 0 0 1 56.68 104.12 L56.68 114.26 L0 114.26 L0 104.12 A1.89421
								 1.88479 0 0 1 1.9 102.24 Z" class="st2"/>
				</g>
				<g id="shape13335-9" transform="translate(-60.7999,25.1282) rotate(-44.919)">
					<title>path8</title>
					<path d="M1.05 100.9 L2.68 100.9 L2.68 113.74 a0.523576 0.520971 0 0 1 -0.523576 0.520971 L0.52 114.26 a0.523576
								 0.520971 0 0 1 -0.523576 -0.520971 L0 101.94 A1.04715 1.04194 0 0 1 1.05 100.9 L1.05 100.9 Z"
							class="st3"/>
				</g>
				<g id="shape13336-13" transform="translate(10.8419,-15.795)">
					<title>path10</title>
					<path d="M1.46 114.26 L0.31 113.11 A1.04715 1.04194 0 0 1 0.31 111.63 L8.85 103.16 a0.523576 0.520971 0 0 1 0.740343
								 0 L10.74 104.31 a0.523576 0.520971 0 0 1 1.77636E-15 0.736659 L1.46 114.26 L1.46 114.26 Z"
							class="st4"/>
				</g>
				<g id="shape13337-15" transform="translate(-35.0785,177.481) rotate(-135.081)">
					<title>path12</title>
					<path d="M0.52 100.88 L2.16 100.88 a0.523576 0.520971 0 0 1 0.523576 0.520971 L2.68 114.26 L1.05 114.26 A1.04715
								 1.04194 0 0 1 0 113.22 L0 101.4 a0.523576 0.520971 0 0 1 0.523576 -0.520971 L0.52 100.88 Z"
							class="st5"/>
				</g>
				<g id="shape13338-19" transform="translate(34.2759,-15.7917)">
					<title>path14</title>
					<path d="M0.15 104.31 L1.31 103.16 a0.523576 0.520971 0 0 1 0.740343 1.42109E-14 L10.58 111.63 A1.04715 1.04194
								 0 0 1 10.59 113.11 L9.44 114.26 L0.16 105.06 a0.523576 0.520971 0 0 1 -0.00666975 -0.743296 Z"
							class="st4"/>
				</g>
				<g id="shape13339-21" transform="translate(57.8756,-0.888264) rotate(17.752)">
					<title>rect16</title>
					<path d="M0 113.89 a0.373515 0.371657 -180 0 0 0.373506 0.371648 L2.31 114.26 a0.373515 0.371657 -180 0 0 0.373506
								 -0.371648 L2.69 89.3 a0.373515 0.371657 -180 0 0 -0.373506 -0.371648 L0.37 88.93 a0.373515 0.371657
								 -180 0 0 -0.373506 0.371648 L0 113.89 Z" class="st4"/>
				</g>
			</g>
		</g>
	</g>
</svg>
